logos/nodewebkit.svg

<?xml version="1.0" encoding="UTF-8" standalone="no"?>
<svg width="256px" height="290px" viewBox="0 0 256 290" version="1.1" xmlns="http://www.w3.org/2000/svg" xmlns:xlink="http://www.w3.org/1999/xlink" preserveAspectRatio="xMidYMid">
	<g>
		<path d="M127.866211,286.234437 C125.126221,286.234437 122.614563,285.549439 120.787903,284.636109 L10.5032959,221.159668 C6.62164309,218.876343 3.42498781,213.16803 3.42498781,208.829712 L3.42498781,81.4201658 C3.42498781,77.081848 6.84997561,71.3735349 10.5032959,69.0902097 L120.787903,5.61376908 C122.614563,4.47210647 125.126221,4.01544143 127.866211,4.01544143 C130.606202,4.01544143 133.117859,4.70043899 134.94452,5.61376908 L245.000794,69.3185423 C248.882447,71.6018675 252.079103,77.3101805 252.079103,81.6484984 L252.079103,208.829712 C252.079103,213.16803 248.654115,218.876343 245.000794,221.159668 L134.94452,284.864442 C133.117859,285.777772 130.606202,286.234437 127.866211,286.234437 L127.866211,286.234437 Z" fill="#3D3B47"></path>
		<path d="M127.866211,7.44042924 C129.921204,7.44042924 131.976197,7.89709428 133.346192,8.58209184 L243.402467,72.0585325 C246.142457,73.6568601 248.882447,78.2235106 248.882447,81.4201658 L248.882447,208.60138 C248.882447,211.798035 246.142457,216.364685 243.402467,217.963013 L133.346192,281.667786 C131.976197,282.352784 129.921204,282.809449 127.866211,282.809449 C125.811219,282.809449 123.756226,282.352784 122.386231,281.667786 L12.3299561,218.191346 C9.58996586,216.593018 6.84997561,212.026368 6.84997561,208.829712 L6.84997561,81.4201658 C6.84997561,78.2235106 9.58996586,73.6568601 12.3299561,72.0585325 L122.386231,8.58209184 C123.756226,7.89709428 125.811219,7.44042924 127.866211,7.44042924 L127.866211,7.44042924 Z M127.866211,0.590453627 C124.669556,0.590453627 121.472901,1.27545119 118.961243,2.64544631 L8.90496829,66.121887 C4.10998537,69.0902097 -1.42108547e-14,75.9401854 -1.42108547e-14,81.4201658 L-1.42108547e-14,208.60138 C-1.42108547e-14,214.309693 3.88165285,221.159668 8.90496829,223.899659 L118.961243,287.604432 C121.472901,288.974427 124.669556,289.659424 127.866211,289.659424 C131.062867,289.659424 134.259522,288.974427 136.77118,287.604432 L246.827455,223.899659 C251.622437,221.159668 255.732423,214.309693 255.732423,208.60138 L255.732423,81.4201658 C255.732423,75.7118528 251.85077,68.8618772 246.827455,66.121887 L136.77118,2.64544631 C134.259522,1.27545119 131.062867,0.590453627 127.866211,0.590453627 L127.866211,0.590453627 Z" fill="#CCCCCC"></path>
		<path d="M127.866211,135.306641 L128.551209,135.306641 C131.747864,135.534973 134.716187,137.361633 136.542847,140.101624 C137.456177,141.699951 137.912842,143.754944 137.912842,145.809937 C137.456177,151.061585 133.346192,154.943237 128.094544,154.943237 L127.409546,154.943237 C124.212891,154.714905 121.244568,152.888245 119.417908,150.148254 C118.504578,148.549927 118.047913,146.494934 118.047913,144.439941 C118.276246,139.416626 122.614563,135.306641 127.866211,135.306641 L127.866211,135.306641 Z M127.866211,134.621643 C122.386231,134.621643 117.819581,138.959961 117.362915,144.439941 C117.134583,146.494934 117.591248,148.549927 118.732911,150.376587 C120.559571,153.34491 123.527894,155.399902 127.181214,155.628235 L127.866211,155.628235 C133.346192,155.628235 137.912842,151.289917 138.369507,145.809937 C138.59784,143.754944 137.912842,141.699951 136.999512,139.873291 C135.172852,136.904968 132.204529,134.849976 128.551209,134.621643 L127.866211,134.621643 L127.866211,134.621643 Z" fill="#EFF3F3"></path>
		<path d="M128.094544,141.699951 C129.921204,141.928284 131.519532,143.526611 131.291199,145.353272 C131.062867,147.179932 129.464539,148.778259 127.637879,148.549927 C125.811219,148.321594 124.212891,146.723267 124.441224,144.896607 C124.441224,143.069946 126.267884,141.471619 128.094544,141.699951 L128.094544,141.699951 Z" fill="#EFF3F3"></path>
		<path d="M127.866211,159.053223 L126.952881,159.053223 C122.386231,158.82489 118.047913,156.0849 115.764588,152.203247 C114.394593,149.691589 113.709595,146.951599 113.937928,144.211609 C114.16626,141.014954 115.536255,138.046631 117.591248,135.763306 L117.591248,135.534973 L27.3999024,204.263062 L131.062867,158.596558 C129.921204,158.82489 129.007874,159.053223 127.866211,159.053223 L127.866211,159.053223 Z" fill="#EFF3F3"></path>
		<path d="M124.441224,131.65332 C125.811219,131.424988 127.181214,131.196655 128.779541,131.196655 C133.346192,131.424988 137.68451,134.164978 139.967835,138.046631 C141.33783,140.558289 142.022828,143.298279 141.794495,146.038269 C141.566163,149.463257 140.196168,152.43158 137.912842,154.714905 L229.017518,87.5851439 L124.441224,131.65332 L124.441224,131.65332 Z" fill="#0977F7"></path>
	</g>
</svg>

<svg preserveAspectRatio="xMidYMid" viewBox="0 0 256 290" xmlns="http://www.w3.org/2000/svg">
  <path fill="#3D3B47" d="M127.866 286.234c-2.74 0-5.251-.685-7.078-1.598L10.503 221.16c-3.881-2.284-7.078-7.992-7.078-12.33V81.42c0-4.338 3.425-10.046 7.078-12.33L120.788 5.614c1.827-1.142 4.338-1.599 7.078-1.599s5.252.685 7.079 1.599L245 69.319c3.881 2.283 7.078 7.991 7.078 12.33v127.18c0 4.339-3.425 10.047-7.078 12.33l-110.056 63.705c-1.827.914-4.339 1.37-7.079 1.37Z"/>
  <path fill="#CCC" d="M127.866 7.44c2.055 0 4.11.457 5.48 1.142L243.402 72.06c2.74 1.598 5.48 6.165 5.48 9.361v127.181c0 3.197-2.74 7.764-5.48 9.362l-110.056 63.705c-1.37.685-3.425 1.141-5.48 1.141-2.055 0-4.11-.456-5.48-1.141L12.33 218.19c-2.74-1.598-5.48-6.165-5.48-9.361V81.42c0-3.196 2.74-7.763 5.48-9.361L122.386 8.582c1.37-.685 3.425-1.142 5.48-1.142Zm0-6.85c-3.196 0-6.393.685-8.905 2.055L8.905 66.122C4.11 69.09 0 75.94 0 81.42v127.181c0 5.709 3.882 12.559 8.905 15.299l110.056 63.704c2.512 1.37 5.709 2.055 8.905 2.055 3.197 0 6.394-.685 8.905-2.055L246.827 223.9c4.795-2.74 8.905-9.59 8.905-15.299V81.421c0-5.71-3.881-12.56-8.905-15.3L136.771 2.646C134.26 1.275 131.063.59 127.866.59Z"/>
  <path fill="#EFF3F3" d="M127.866 135.307h.685c3.197.228 6.165 2.055 7.992 4.795.913 1.598 1.37 3.653 1.37 5.708-.457 5.252-4.567 9.133-9.818 9.133h-.685c-3.197-.228-6.165-2.055-7.992-4.795-.913-1.598-1.37-3.653-1.37-5.708.228-5.023 4.567-9.133 9.818-9.133Zm0-.685c-5.48 0-10.046 4.338-10.503 9.818-.228 2.055.228 4.11 1.37 5.937 1.827 2.968 4.795 5.023 8.448 5.251h.685c5.48 0 10.047-4.338 10.504-9.818.228-2.055-.457-4.11-1.37-5.937-1.827-2.968-4.795-5.023-8.449-5.251h-.685Z"/>
  <path fill="#EFF3F3" d="M128.095 141.7c1.826.228 3.425 1.827 3.196 3.653-.228 1.827-1.826 3.425-3.653 3.197-1.827-.228-3.425-1.827-3.197-3.653 0-1.827 1.827-3.425 3.654-3.197Z"/>
  <path fill="#EFF3F3" d="M127.866 159.053h-.913c-4.567-.228-8.905-2.968-11.188-6.85-1.37-2.511-2.055-5.251-1.827-7.991.228-3.197 1.598-6.165 3.653-8.449v-.228L27.4 204.263l103.663-45.666c-1.142.228-2.055.456-3.197.456Z"/>
  <path fill="#0977F7" d="M124.441 131.653c1.37-.228 2.74-.456 4.339-.456 4.566.228 8.905 2.968 11.188 6.85 1.37 2.511 2.055 5.251 1.826 7.991-.228 3.425-1.598 6.394-3.881 8.677l91.105-67.13-104.577 44.068Z"/>
</svg>
